X:4349
L:1/4
Q:1/4=115
M:3/4
K:G
 D |"G" B B B | c B A |"C" A G E |"G" D2 D |"D7" F F F | F E F |"G" G A B |"D" A z D |"G" B B B | 
 c B A | G A B |"C" !fermata!c2 c |"G/D" B D G |"D7" A B3/2 A/ |"G" G3- | G z || B |"G" D E F | 
 G A3/2 G/ | B3- | B z d |"D" A A A | A B3/2 c/ |"G" B3- | B z B | d e d | B2 A/B/ | G A"G7" B | 
"C" !fermata!c2 c |"G/D" B D G |"D7" A B3/2 A/ |"G" G3- | G z |]

